X: 37361
T: Slated House
R: jig
M: 6/8
K: Gmajor
G,B,D GD=F|~E3 CEG|DFA d2^c|dAc BGD|
G,B,D GD=F|~E3 CEG|DFA dAF|1 AGF GDB,:|2 AGF GBd||
|:~g3 dBG|fed cAF|DFA ~d3|~c3 Bcd|
~g3 dBG|fed cAF|DFA dAF|1 AGF GBd:|2 AGF GDB,||

